X:451
T:Quita la mula rucia
Z:Jack Campin, http://www.campin.me.uk/
F:Jack Campin's Nine-Note Tunebook
% last edit 03-02-2013
G:song from Murcia
M:3/4
L:1/8
Q:1/4=120
K:EPhr
z E EE E^G|(B4 ^GA/B/)|c3 B  A>B|(=G4 F2{GF})|E4    z2:|
A2c3B|(d>c) B4|F2A3B|F2E4|\
zE EE E^G|
          (B4  ^GA/B/)|c3 B AB  |(^G>A) B4   |A2 F2 G2 |(E4F2{GF})|E6-|E2 z4|]

